X: 17325
T: Hidden Ireland, The
R: jig
M: 6/8
K: Dmajor
DFA dcd|edc dAF|DFA dAF|A,CE GFE|
DFA dcd|edc dfb|afd gec|dAF D2:|
afd gec|dcd AFA|fdB gec|dcB AFA|
~a3 bag|~f3 ecA|dcd AFD|A,FC D2:|

